rospo-icon-theme-classic-common/32x32/apps/com.github.mirkobrombin.ppaextender.svg

<svg height="32" viewBox="0 0 32 32" width="32" xmlns="http://www.w3.org/2000/svg"><g transform="translate(0 -1020.3622)"><path d="m30 1049.9872v-19.25c0-.7617-.6244-1.375-1.4-1.375h-25.2c-.7756 0-1.4.6133-1.4 1.375v19.25c0 .7618.6244 1.375 1.4 1.375h25.2c.7756 0 1.4-.6132 1.4-1.375z" opacity=".2"/><path d="m30 1042.9872v-19.25c0-.7618-.6244-1.375-1.4-1.375h-25.2c-.7756 0-1.4.6133-1.4 1.375v19.25c0 .7618.6244 1.375 1.4 1.375h25.2c.7756 0 1.4-.6132 1.4-1.375z" fill="#86603b"/><path d="m30 1045.9872v-19.25c0-.7617-.6244-1.375-1.4-1.375h-25.2c-.7756 0-1.4.6133-1.4 1.375v19.25c0 .7617.6244 1.375 1.4 1.375h25.2c.7756 0 1.4-.6132 1.4-1.375z" fill="#c28a52"/><path d="m30 1048.9872v-19.25c0-.7617-.6244-1.375-1.4-1.375h-25.2c-.7756 0-1.4.6133-1.4 1.375v19.25c0 .7618.6244 1.375 1.4 1.375h25.2c.7756 0 1.4-.6132 1.4-1.375z" fill="#fabd7f"/><g fill="#fff" transform="translate(0 1020.3622)"><path d="m3.4003906 2c-.7756 0-1.4003906.6133-1.4003906 1.375v1c0-.7617.6247906-1.375 1.4003906-1.375h25.1992184c.7756 0 1.400391.6132 1.400391 1.375v-1c0-.7618-.624791-1.375-1.400391-1.375z" opacity=".1"/><path d="m3.4003906 5c-.7756 0-1.4003906.6133-1.4003906 1.375v1c0-.7617.6247906-1.375 1.4003906-1.375h25.1992184c.7756 0 1.400391.6133 1.400391 1.375v-1c0-.7617-.624791-1.375-1.400391-1.375z" opacity=".2"/><path d="m3.4003906 8c-.7756 0-1.4003906.6133-1.4003906 1.375v1c0-.7617.6247906-1.375 1.4003906-1.375h25.1992184c.7756 0 1.400391.6133 1.400391 1.375v-1c0-.7617-.624791-1.375-1.400391-1.375z" opacity=".2"/></g></g></svg>

<svg xmlns="http://www.w3.org/2000/svg" width="32" height="32" version="1.1" viewBox="0 0 32 32">
 <g transform="translate(0,-1020.3622)">
  <path d="m 30,1049.9872 0,-19.25 c 0,-0.7617 -0.6244,-1.375 -1.4,-1.375 l -25.2,0 c -0.7756,0 -1.4,0.6133 -1.4,1.375 l 0,19.25 c 0,0.7618 0.6244,1.375 1.4,1.375 l 25.2,0 c 0.7756,0 1.4,-0.6132 1.4,-1.375 z" style="opacity:0.2"/>
  <path d="m 30,1042.9872 0,-19.25 c 0,-0.7618 -0.6244,-1.375 -1.4,-1.375 l -25.2,0 c -0.7756,0 -1.4,0.6133 -1.4,1.375 l 0,19.25 c 0,0.7618 0.6244,1.375 1.4,1.375 l 25.2,0 c 0.7756,0 1.4,-0.6132 1.4,-1.375 z" style="fill:#86603b"/>
  <path style="fill:#c28a52" d="m 30,1045.9872 0,-19.25 c 0,-0.7617 -0.6244,-1.375 -1.4,-1.375 l -25.2,0 c -0.7756,0 -1.4,0.6133 -1.4,1.375 l 0,19.25 c 0,0.7617 0.6244,1.375 1.4,1.375 l 25.2,0 c 0.7756,0 1.4,-0.6132 1.4,-1.375 z"/>
  <path style="fill:#fabd7f" d="m 30,1048.9872 0,-19.25 c 0,-0.7617 -0.6244,-1.375 -1.4,-1.375 l -25.2,0 c -0.7756,0 -1.4,0.6133 -1.4,1.375 l 0,19.25 c 0,0.7618 0.6244,1.375 1.4,1.375 l 25.2,0 c 0.7756,0 1.4,-0.6132 1.4,-1.375 z"/>
  <path style="fill:#ffffff;opacity:0.1" d="M 3.4003906 2 C 2.6247906 2 2 2.6133 2 3.375 L 2 4.375 C 2 3.6133 2.6247906 3 3.4003906 3 L 28.599609 3 C 29.375209 3 30 3.6132 30 4.375 L 30 3.375 C 30 2.6132 29.375209 2 28.599609 2 L 3.4003906 2 z" transform="translate(0,1020.3622)"/>
  <path style="fill:#ffffff;opacity:0.2" d="M 3.4003906 5 C 2.6247906 5 2 5.6133 2 6.375 L 2 7.375 C 2 6.6133 2.6247906 6 3.4003906 6 L 28.599609 6 C 29.375209 6 30 6.6133 30 7.375 L 30 6.375 C 30 5.6133 29.375209 5 28.599609 5 L 3.4003906 5 z" transform="translate(0,1020.3622)"/>
  <path style="fill:#ffffff;opacity:0.2" d="M 3.4003906 8 C 2.6247906 8 2 8.6133 2 9.375 L 2 10.375 C 2 9.6133 2.6247906 9 3.4003906 9 L 28.599609 9 C 29.375209 9 30 9.6133 30 10.375 L 30 9.375 C 30 8.6133 29.375209 8 28.599609 8 L 3.4003906 8 z" transform="translate(0,1020.3622)"/>
 </g>
</svg>
